X:1
T:Llangloffan, 76.76 D
T:Llangloffan, 76.76 D
T:Daniel Silvan Evans, 1865
T:Public Domain Courtesy of the Cyber Hymnal™
C:Daniel Silvan Evans, 1865
Z:Public Domain
Z:Courtesy of the Cyber Hymnal™
%%score ( 1 2 ) ( 3 4 )
L:1/8
Q:1/4=113
M:4/4
K:Bb
V:1 treble 
V:2 treble 
V:3 bass 
V:4 bass 
V:1
 D2 | G2 [DG]2 [EA]2 [DA]2 | ([B,B]3 [CA]) [DG]2 [DG]2 | [Cc]2 [Ec]2 [DB]2 [DB]2 | [DA]6 D2 | %5
 [B,G]2 [EG]2 [EA]2 [FA]2 | B3 (z c) [Fd]2 [Ec]2 | [DB]2 [B,G]2 [EA]2 [D^F]2 | [DG]6 [Gd]2 | %9
 [Fd]2 [FB]2 [EA]2 [Cc]2 | [FB]4 [FA]2 [CG]2 | [D^F]2 [DG]2 [Cc]2 [DB]2 | [DA]6 D2 | %13
 G2 [DG]2 [EA]2 [DA]2 | (B3 c) [Gd]2 [Gc]2 | [FB]2 [EG]2 [EA]2 [D^F]2 | [DG]6 |] %17
V:2
 D2 | G2 x6 | x8 | x8 | x6 (DC) | x8 | (F2 G2) x5 | x8 | x8 | x8 | x8 | x8 | x6 D2 | x8 | D4 x4 | %15
 x8 | x6 |] %17
V:3
 D,2 | G,2 [B,,G,]2 [C,G,]2 [D,^F,]2 | (G,3 A,) [G,B,]2 [F,B,]2 | %3
 [E,G,]2 [C,G,]2 [G,,G,]2 [B,,G,]2 | [D,^F,]6 [D,F,]2 | [E,G,]2 B,2 [C,C]2 [F,C]2 | %6
 ([D,D]2 [E,B,]2) (B,A,) [C,G,]2 x | [D,F,]2 [E,G,]2 [C,C]2 [D,A,]2 | [G,B,]6 ([G,B,][A,C]) | %9
 [B,D]2 [B,,D]2 [C,C]2 (G,A,) | [D,B,]4 [F,C]2 [E,G,]2 | A,2 [B,,G,]2 [A,,^F,]2 [G,,G,]2 | %12
 (G,4 ^F,2) D,2 | G,2 [B,,G,]2 [C,G,]2 [D,^F,]2 | (G,3 A,) [G,B,]2 [C,E]2 | %15
 [D,D]2 [E,B,]2 [C,C]2 [D,A,]2 | [G,,B,]6 |] %17
V:4
 D,2 | G,2 x6 | G,,4 x4 | x8 | x8 | x2 (E,D,) x4 | x4 B,,2 x3 | x8 | x8 | x6 E,2 | x8 | (D,C,) x6 | %12
 D,6 x2 | x8 | G,,4 x4 | x8 | x6 |] %17

